X: 21990
T: Kitty Sean Cunningham's
R: barndance
M: 4/4
K: Gmajor
|:Bc|d<gdB G2DG|F2E2 E2AB|cBcA FDFA|d2dc d2Bc|
d<gdB G2DG|F2E2 E2AB|cBcA FDBA|G2B2 G2:|
|:AG|F2FE FAcA|G2GF G2 (3ABc|dAFA DAFA|B2BA Bdef|
gb (3agf gdBd|c2cB c2AB|cAFA dcAF|G2B2 G2:|

